src/assets/img/icons/duotone-icons/Files/User-folder.svg

<?xml version="1.0" encoding="UTF-8"?>
<svg width="24px" height="24px" viewBox="0 0 24 24" version="1.1" xmlns="http://www.w3.org/2000/svg" xmlns:xlink="http://www.w3.org/1999/xlink">
    <!-- Generator: Sketch 52.2 (67145) - http://www.bohemiancoding.com/sketch -->
    <title>Stockholm-icons / Files / User-folder</title>
    <desc>Created with Sketch.</desc>
    <g id="Stockholm-icons-/-Files-/-User-folder" stroke="none" stroke-width="1" fill="none" fill-rule="evenodd">
        <rect id="bound" x="0" y="0" width="24" height="24"></rect>
        <path d="M3.5,21 L20.5,21 C21.3284271,21 22,20.3284271 22,19.5 L22,8.5 C22,7.67157288 21.3284271,7 20.5,7 L10,7 L7.43933983,4.43933983 C7.15803526,4.15803526 6.77650439,4 6.37867966,4 L3.5,4 C2.67157288,4 2,4.67157288 2,5.5 L2,19.5 C2,20.3284271 2.67157288,21 3.5,21 Z" id="Combined-Shape" fill="#335EEA" opacity="0.3"></path>
        <path d="M12,13 C10.8954305,13 10,12.1045695 10,11 C10,9.8954305 10.8954305,9 12,9 C13.1045695,9 14,9.8954305 14,11 C14,12.1045695 13.1045695,13 12,13 Z" id="Mask" fill="#335EEA" opacity="0.3"></path>
        <path d="M7.00036205,18.4995035 C7.21569918,15.5165724 9.36772908,14 11.9907452,14 C14.6506758,14 16.8360465,15.4332455 16.9988413,18.5 C17.0053266,18.6221713 16.9988413,19 16.5815,19 C14.5228466,19 11.463736,19 7.4041679,19 C7.26484009,19 6.98863236,18.6619875 7.00036205,18.4995035 Z" id="Mask-Copy" fill="#335EEA" opacity="0.3"></path>
    </g>
</svg>

<svg width="24" height="24" viewBox="0 0 24 24" xmlns="http://www.w3.org/2000/svg"><g fill="none" fill-rule="evenodd"><path d="M0 0h24v24H0z"/><path d="M3.5 21h17a1.5 1.5 0 001.5-1.5v-11A1.5 1.5 0 0020.5 7H10L7.44 4.44A1.5 1.5 0 006.378 4H3.5A1.5 1.5 0 002 5.5v14A1.5 1.5 0 003.5 21z" fill="#335EEA" opacity=".3"/><path d="M12 13a2 2 0 110-4 2 2 0 010 4zM7 18.5c.216-2.983 2.368-4.5 4.99-4.5 2.66 0 4.846 1.433 5.009 4.5.006.122 0 .5-.418.5H7.404c-.14 0-.415-.338-.404-.5z" fill="#335EEA" opacity=".3"/></g></svg>
